libs/ui/packages/crypto-icons/src/svg/SUB.svg

<svg width="24" height="24" viewBox="0 0 24 24" fill="none">
<path d="M8.92936 3.93995C8.96155 3.9151 9.0012 3.90188 9.04186 3.90245C9.08243 3.90245 9.1219 3.91561 9.15436 3.93995L10.0971 4.64645C10.1168 4.66127 10.1334 4.67983 10.1459 4.70106C10.1584 4.7223 10.1667 4.74579 10.1701 4.7702C10.1736 4.79461 10.1722 4.81946 10.166 4.84333C10.1599 4.8672 10.1491 4.88963 10.1342 4.90933C10.1194 4.92902 10.1009 4.94561 10.0796 4.95814C10.0584 4.97066 10.0349 4.97888 10.0105 4.98233C9.98608 4.98578 9.96123 4.98438 9.93735 4.97823C9.91348 4.97207 9.89106 4.96127 9.87136 4.94645L9.04186 4.3262L6.34411 6.34895L18.1941 15.2395C18.2176 15.2571 18.2366 15.2799 18.2497 15.3061C18.2628 15.3323 18.2696 15.3613 18.2696 15.3906C18.2696 15.4199 18.2628 15.4488 18.2497 15.475C18.2366 15.5013 18.2176 15.5241 18.1941 15.5417L17.3234 16.1942C17.2834 16.224 17.2332 16.2368 17.1838 16.2296C17.1344 16.2224 17.0899 16.1959 17.0601 16.156C17.0303 16.116 17.0175 16.0658 17.0247 16.0164C17.0319 15.967 17.0584 15.9225 17.0984 15.8927L17.7681 15.3902L5.91736 6.5012C5.8938 6.48393 5.87464 6.46134 5.86143 6.43528C5.84822 6.40922 5.84134 6.38042 5.84134 6.3512C5.84134 6.32198 5.84822 6.29318 5.86143 6.26712C5.87464 6.24106 5.8938 6.21848 5.91736 6.2012L8.92936 3.9407V3.93995ZM11.9421 3.93995C11.9743 3.91504 12.0137 3.9014 12.0544 3.90113C12.095 3.90086 12.1346 3.91397 12.1671 3.93845L18.1934 8.4587C18.225 8.48212 18.2484 8.51507 18.26 8.55272C18.2716 8.59038 18.2709 8.63076 18.2579 8.66795C18.2457 8.70547 18.2219 8.73817 18.19 8.76134C18.158 8.78452 18.1196 8.79698 18.0801 8.79695H15.0674C15.0268 8.79669 14.9874 8.78355 14.9549 8.75945L11.0001 5.79395C10.9803 5.77913 10.9636 5.76055 10.951 5.73928C10.9384 5.71801 10.9301 5.69446 10.9266 5.66998C10.9231 5.6455 10.9244 5.62057 10.9305 5.59661C10.9366 5.57264 10.9474 5.55012 10.9622 5.53033C10.9771 5.51053 10.9956 5.49385 11.0169 5.48123C11.0382 5.46861 11.0617 5.46031 11.0862 5.45679C11.1107 5.45327 11.1356 5.45461 11.1596 5.46073C11.1835 5.46685 11.2061 5.47763 11.2259 5.49245L15.1311 8.42045H17.5154L12.0554 4.32545L8.27536 7.16045C8.25556 7.17527 8.23304 7.18605 8.20908 7.19217C8.18512 7.19829 8.16018 7.19963 8.1357 7.19611C8.08626 7.18901 8.04167 7.16256 8.01174 7.12258C7.9818 7.08259 7.96897 7.03236 7.97607 6.98292C7.98318 6.93348 8.00963 6.88889 8.04961 6.85895L11.9421 3.93995ZM6.74911 7.8362C6.78928 7.81193 6.83705 7.80347 6.88312 7.81248C6.92918 7.82148 6.97025 7.84731 6.99832 7.88493C7.02639 7.92254 7.03946 7.96926 7.03499 8.01599C7.03051 8.06271 7.00881 8.1061 6.97411 8.1377L6.34336 8.6102L18.1941 17.5007C18.2177 17.5181 18.2368 17.5409 18.25 17.567C18.2632 17.5932 18.2701 17.6221 18.2701 17.6515C18.2701 17.6808 18.2632 17.7097 18.25 17.7359C18.2368 17.762 18.2177 17.7848 18.1941 17.8022L15.1814 20.062C15.1488 20.086 15.1093 20.0989 15.0689 20.0989C15.0284 20.0989 14.989 20.086 14.9564 20.062L14.0841 19.408C14.0441 19.3778 14.0178 19.333 14.0108 19.2835C14.0038 19.2339 14.0169 19.1836 14.047 19.1436C14.0771 19.1036 14.1219 19.0772 14.1715 19.0703C14.2211 19.0633 14.2714 19.0763 14.3114 19.1065L15.0689 19.6742L17.7689 17.6492L5.91511 8.76095C5.89194 8.74324 5.87316 8.72043 5.86024 8.69428C5.84732 8.66814 5.8406 8.63936 5.8406 8.6102C5.8406 8.58104 5.84732 8.55227 5.86024 8.52612C5.87316 8.49998 5.89194 8.47716 5.91511 8.45945L6.74761 7.83695L6.74911 7.8362ZM6.02986 15.2004V15.202H9.04111C9.08177 15.2014 9.12142 15.2146 9.15361 15.2395L13.0656 18.1727C13.0854 18.1875 13.1021 18.206 13.1147 18.2272C13.1274 18.2485 13.1357 18.272 13.1393 18.2964C13.1428 18.3208 13.1415 18.3458 13.1354 18.3697C13.1294 18.3936 13.1186 18.4162 13.1039 18.436C13.0891 18.4557 13.0706 18.4724 13.0493 18.4851C13.0281 18.4977 13.0046 18.506 12.9802 18.5096C12.9557 18.5131 12.9308 18.5119 12.9069 18.5058C12.8829 18.4997 12.8604 18.489 12.8406 18.4742L8.98111 15.5785H6.59536L12.0561 19.6735L15.8286 16.8445C15.8484 16.8296 15.8709 16.8188 15.8949 16.8126C15.9189 16.8064 15.9439 16.805 15.9684 16.8085C15.9929 16.812 16.0165 16.8203 16.0378 16.8329C16.0591 16.8455 16.0777 16.8622 16.0926 16.882C16.1075 16.9017 16.1183 16.9243 16.1245 16.9483C16.1306 16.9722 16.132 16.9972 16.1285 17.0217C16.1251 17.0462 16.1168 17.0698 16.1042 17.0911C16.0916 17.1125 16.0749 17.1311 16.0551 17.146L12.1694 20.059C12.1369 20.0833 12.0974 20.0965 12.0569 20.0965C12.016 20.0968 11.9762 20.0836 11.9436 20.059L5.91586 15.5402C5.88619 15.5398 5.85703 15.5325 5.83076 15.5187C5.80448 15.5049 5.78183 15.4851 5.76465 15.461C5.74747 15.4368 5.73626 15.4089 5.73192 15.3795C5.72757 15.3502 5.73023 15.3202 5.73967 15.2921C5.74911 15.264 5.76506 15.2385 5.78622 15.2177C5.80739 15.1969 5.83317 15.1814 5.86146 15.1725C5.88975 15.1635 5.91975 15.1614 5.94902 15.1663C5.97828 15.1711 6.00598 15.1828 6.02986 15.2004Z" fill="#E53431"/>
</svg>

<svg width="24" height="24" viewBox="0 0 24 24" fill="none"><path fill="#e53431" d="M8.93 3.94a.19.19 0 0 1 .225 0l.942.706a.187.187 0 1 1-.226.3l-.83-.62L6.345 6.35l11.85 8.89a.188.188 0 0 1 0 .303l-.87.652a.188.188 0 0 1-.226-.301l.67-.503-11.85-8.889a.186.186 0 0 1 0-.3zm3.012 0a.185.185 0 0 1 .225-.002l6.026 4.52a.185.185 0 0 1 .065.21.19.19 0 0 1-.178.129h-3.013a.2.2 0 0 1-.112-.038L11 5.794a.188.188 0 1 1 .226-.302L15.13 8.42h2.384l-5.46-4.095-3.78 2.835a.188.188 0 0 1-.225-.301zM6.75 7.836a.189.189 0 0 1 .225.302l-.63.472 11.85 8.89a.187.187 0 0 1 0 .302l-3.013 2.26a.19.19 0 0 1-.225 0l-.872-.654a.19.19 0 0 1 .227-.302l.758.568 2.7-2.025L5.915 8.761a.19.19 0 0 1 0-.302l.833-.622zM6.03 15.2v.002h3.012q.062 0 .113.037l3.912 2.934a.188.188 0 0 1-.225.301L8.98 15.58H6.595l5.461 4.095 3.773-2.83a.189.189 0 1 1 .226.302l-3.886 2.913a.19.19 0 0 1-.225 0l-6.028-4.52a.188.188 0 1 1 .114-.34"/></svg>
